X:49
T: UND ALS ICH AUF GRUEN HEIDE KAM
N: E0040B
O: Europa, Mitteleuropa, Deutschland, Westfalen
R: erzaehlendes Volks - Lied, Ritter - Sage
M: 4/4
L: 1/8
K: F
_E | _E3_AA2F2 | F3_EE2z
E | _A3AB3B | c6z
_A | G3FG2_A2 | B4c4
F3G_A2F2 | G2C2C2
_A2 | G3FG2_A2 | B4c2z
B | _A2F2G2E2 | F4z3

